www/assets/icons/nearby_error.svg

<svg width="24" height="24" viewBox="0 0 24 24" xmlns="http://www.w3.org/2000/svg" fill='currentColor'><path d="M12.0026 7.57256L16.4226 11.9926L12.0026 16.4126L7.58256 11.9926L12.0026 7.57256ZM12.0026 19.1926L4.80256 11.9926L12.0026 4.79256L18.0026 10.7926V7.16256L13.4226 2.58256C12.6426 1.80256 11.3726 1.80256 10.5926 2.58256L2.58256 10.5826C1.80256 11.3626 1.80256 12.6326 2.58256 13.4126L10.5926 21.4126C11.3726 22.1926 12.6426 22.1926 13.4226 21.4126L18.0026 16.8226V13.1926L12.0026 19.1926ZM20.0026 20.0026H22.0026V22.0026H20.0026V20.0026ZM22.0026 10.0026H20.0026V18.0026H22.0026V10.0026Z"/></svg>

<svg xmlns="http://www.w3.org/2000/svg" width="24" height="24" viewBox="0 0 24 24" fill='currentColor'><path d="m12.003 7.573 4.42 4.42-4.42 4.42-4.42-4.42zm0 11.62-7.2-7.2 7.2-7.2 6 6v-3.63l-4.58-4.58c-.78-.78-2.05-.78-2.83 0l-8.01 8c-.78.78-.78 2.05 0 2.83l8.01 8c.78.78 2.05.78 2.83 0l4.58-4.59v-3.63zm8 .81h2v2h-2zm2-10h-2v8h2z"/></svg>
